app/client/src/assets/icons/blueprintjs/16px/filter-list.svg

<svg xmlns="http://www.w3.org/2000/svg" xml:space="preserve" viewBox="0 0 16 16"><path fill-rule="evenodd" d="M9 8c0 .55.45 1 1 1h5c.55 0 1-.45 1-1s-.45-1-1-1h-5c-.55 0-1 .45-1 1zm3-6c0-.55-.45-1-1-1H1a1.003 1.003 0 0 0-.71 1.71L4 6.41V12a1.003 1.003 0 0 0 1.71.71l2-2c.18-.18.29-.43.29-.71V6.41l3.71-3.71c.18-.17.29-.42.29-.7zm3 8h-5c-.55 0-1 .45-1 1s.45 1 1 1h5c.55 0 1-.45 1-1s-.45-1-1-1zm0 3h-5c-.55 0-1 .45-1 1s.45 1 1 1h5c.55 0 1-.45 1-1s-.45-1-1-1z" clip-rule="evenodd"/></svg>

<?xml version="1.0" encoding="utf-8"?>
<!-- Generator: Adobe Illustrator 18.0.0, SVG Export Plug-In . SVG Version: 6.00 Build 0)  -->
<svg version="1.1" id="Layer_1" xmlns="http://www.w3.org/2000/svg" xmlns:xlink="http://www.w3.org/1999/xlink" x="0px" y="0px"
	 viewBox="0 0 16 16" enable-background="new 0 0 16 16" xml:space="preserve">
<g id="filter_list_1_">
	<g>
		<path fill-rule="evenodd" clip-rule="evenodd" d="M9,8c0,0.55,0.45,1,1,1h5c0.55,0,1-0.45,1-1c0-0.55-0.45-1-1-1h-5
			C9.45,7,9,7.45,9,8z M12,2c0-0.55-0.45-1-1-1H1C0.45,1,0,1.45,0,2c0,0.28,0.11,0.53,0.29,0.71L4,6.41V12c0,0.55,0.45,1,1,1
			c0.28,0,0.53-0.11,0.71-0.29l2-2C7.89,10.53,8,10.28,8,10V6.41l3.71-3.71C11.89,2.53,12,2.28,12,2z M15,10h-5c-0.55,0-1,0.45-1,1
			c0,0.55,0.45,1,1,1h5c0.55,0,1-0.45,1-1C16,10.45,15.55,10,15,10z M15,13h-5c-0.55,0-1,0.45-1,1c0,0.55,0.45,1,1,1h5
			c0.55,0,1-0.45,1-1C16,13.45,15.55,13,15,13z"/>
	</g>
</g>
</svg>
